logo/openai.svg

<?xml version="1.0" encoding="UTF-8"?>
<svg width="512px" height="126px" viewBox="0 0 512 126" version="1.1" xmlns="http://www.w3.org/2000/svg" xmlns:xlink="http://www.w3.org/1999/xlink" preserveAspectRatio="xMidYMid">
    <title>OpenAI</title>
    <g fill="#000000">
				<path d="M365.131428,49.0741817 C357.593526,49.0741817 352.214006,51.6489012 349.573549,56.5244338 L348.154714,59.1648908 L348.154714,50.3451071 L335.889189,50.3451071 L335.889189,103.954053 L348.790177,103.954053 L348.790177,72.0604006 C348.790177,64.4403266 352.93164,60.0687816 360.146333,60.0687816 C367.02686,60.0687816 370.971111,64.3252859 370.971111,71.7426692 L370.971111,103.954053 L383.877577,103.954053 L383.877577,69.4418561 C383.877577,56.6778213 376.871053,49.0741817 365.131428,49.0741817 Z M302.565745,49.0741817 C287.342032,49.0741817 277.914176,58.5732531 277.914176,73.8627042 L277.914176,81.38965 C277.914176,96.0929416 287.451594,105.224978 302.806783,105.224978 C313.07827,105.224978 320.276528,101.461506 324.806939,93.7209128 L316.808874,89.1192865 C313.461739,93.5839596 308.115087,96.3504135 302.812261,96.3504135 C295.038799,96.3504135 290.398826,91.5515747 290.398826,83.509685 L290.398826,81.3786938 L326.406552,81.3786938 L326.406552,72.4876944 C326.406552,58.2445655 317.05539,49.0741817 302.576701,49.0741817 L302.565745,49.0741817 Z M314.666927,72.7122976 L290.355001,72.7122976 L290.355001,71.4249379 C290.355001,62.5996761 294.688199,57.7296216 302.554789,57.7296216 C310.131038,57.7296216 314.65597,62.5284604 314.65597,70.5703502 L314.666927,72.7122976 Z M512,41.5198452 L512,31.2647924 L467.375181,31.2647924 L467.375181,41.5198452 L483.020711,41.5198452 L483.020711,93.6770878 L467.375181,93.6770878 L467.375181,103.932141 L512,103.932141 L512,93.6770878 L496.348993,93.6770878 L496.348993,41.5198452 L512,41.5198452 Z M173.638038,29.7856983 C153.708613,29.7856983 141.317091,42.2046111 141.317091,62.205251 L141.317091,73.0190727 C141.317091,93.0142345 153.703135,105.438625 173.638038,105.438625 C193.57294,105.438625 205.958984,93.0142345 205.958984,73.0190727 L205.958984,62.205251 C205.953506,42.1826986 193.551028,29.7856983 173.638038,29.7856983 Z M192.625224,73.7586198 C192.625224,87.0375985 185.70635,94.6521943 173.638038,94.6521943 C161.569725,94.6521943 154.656329,87.0375985 154.656329,73.7586198 L154.656329,61.4602258 C154.656329,48.1812471 161.580681,40.5666512 173.643516,40.5666512 C185.70635,40.5666512 192.630702,48.1812471 192.630702,61.4602258 L192.625224,73.7586198 Z M246.480686,49.0741817 C239.709722,49.0741817 233.848126,51.8789825 230.791332,56.5737369 L229.405366,58.7102063 L229.405366,50.3451071 L217.134362,50.3451071 L217.134362,122.398905 L230.040828,122.398905 L230.040828,96.3011104 L231.421316,98.3499297 C234.324723,102.655737 239.994584,105.224978 246.590248,105.224978 C257.716323,105.224978 268.941005,97.9555046 268.941005,81.7073814 L268.941005,72.5917788 C268.941005,60.8850225 262.022131,49.0741817 246.480686,49.0741817 L246.480686,49.0741817 Z M256.034539,81.0773968 C256.034539,89.7164023 250.994662,95.0849663 242.887035,95.0849663 C235.32722,95.0849663 230.051785,89.4096272 230.051785,81.2910437 L230.051785,73.2272415 C230.051785,65.0100517 235.371045,59.2251501 242.996597,59.2251501 C251.043965,59.2251501 256.045495,64.588236 256.045495,73.2272415 L256.034539,81.0773968 Z M419.540181,31.2702705 L393.502645,103.954053 L406.611802,103.954053 L411.596897,88.3742613 L441.529381,88.3742613 L441.578684,88.5276489 L446.508998,103.954053 L459.612676,103.954053 L433.531316,31.2647924 L419.540181,31.2702705 Z M414.796123,78.1246866 L426.541226,41.377414 L438.165811,78.1246866 L414.796123,78.1246866 Z"></path>
				<path d="M116.08484,51.5612512 C118.942613,42.9827523 117.960247,33.5883781 113.389602,25.7866659 C106.508682,13.8288345 92.6973243,7.67791081 79.2060928,10.5629523 C73.2060618,3.79625563 64.5786473,-0.0532364603 55.5351081,0.000556328614 C41.7355849,-0.0302926402 29.4968898,8.85809568 25.2575029,21.9903242 C16.3994728,23.8073685 8.75503049,29.3555286 4.28175645,37.2140378 C-2.63538569,49.152298 -1.05721438,64.1903007 8.18766065,74.4324294 C5.34111759,83.0030169 6.32316165,92.3843321 10.8828989,100.179624 C17.7575638,112.161259 31.5861367,118.328205 45.093799,115.436206 C51.0883814,122.194518 59.7036911,126.043062 68.737393,125.998425 C82.5369162,126.029451 94.7756114,117.141063 99.0149983,104.008834 C107.871293,102.191014 115.513744,96.6428507 119.985267,88.7851208 C126.920873,76.8497637 125.343882,61.7996855 116.08484,51.5612512 Z M68.737393,117.780853 C63.2141366,117.785642 57.8654034,115.846289 53.6287201,112.302718 C53.8149764,112.198634 54.1765327,112.017855 54.3847016,111.880902 L79.474521,97.3967357 C80.7562304,96.6686637 81.5441301,95.3045077 81.5342966,93.8304753 L81.5342966,58.4527343 L92.1344714,64.5718016 C92.2510065,64.6269956 92.3300309,64.7392935 92.3426402,64.8676205 L92.3426402,94.1482067 C92.3426402,107.189463 81.7786405,117.765729 68.737393,117.780853 L68.737393,117.780853 Z M18.0154196,96.1203322 C15.2495784,91.3404624 14.2510197,85.7407779 15.1941845,80.2995028 C15.3804408,80.4145435 15.7091284,80.6117561 15.9392097,80.7432311 L41.0345072,95.2328757 C42.3066308,95.9779237 43.8819348,95.9779237 45.1540584,95.2328757 L75.7713075,77.5275708 L75.7713075,89.7657055 C75.7828997,89.8935989 75.7268067,90.0182501 75.6233981,90.0943931 L50.2596723,104.731947 C38.9678692,111.233586 24.5441209,107.369119 18.0154196,96.0929416 L18.0154196,96.1203322 Z M11.4416678,41.3390671 C14.1945376,36.5519884 18.5445232,32.8865971 23.7291056,30.985408 L23.7291056,60.8083287 C23.7215951,62.2817457 24.5088656,63.6448123 25.7888811,64.3745891 L56.4116084,82.0579815 L45.7730867,88.1989613 C45.6677553,88.2698947 45.5335448,88.2822834 45.4170084,88.23183 L20.0587608,73.5887979 C8.77671207,67.0619249 4.91115861,52.6316692 11.4197553,41.3390671 L11.4416678,41.3390671 Z M98.5438794,61.6081352 L67.9211522,43.9247428 L78.5103707,37.8001973 C78.6160478,37.73024 78.7497514,37.7178982 78.8664489,37.7673286 L104.224697,52.4103608 C112.153676,56.9917322 116.718476,65.7447168 115.937024,74.8686966 C115.155572,83.9926763 109.16882,91.84194 100.576264,95.0082725 L100.576264,65.1908299 C100.593141,63.7135298 99.8092479,62.3427655 98.527445,61.6081352 L98.5438794,61.6081352 Z M109.100229,45.7215683 C108.913973,45.6065276 108.585285,45.4093151 108.355204,45.27784 L83.2599064,30.7881954 C81.9877828,30.0431474 80.4124789,30.0431474 79.1403553,30.7881954 L48.5173955,48.4661097 L48.5173955,36.2334532 C48.5132731,36.1056698 48.5702821,35.9835077 48.6710156,35.9047656 L74.0292632,21.2672115 C81.9611862,16.694978 91.8213323,17.1204093 99.3299585,22.3588493 C106.838585,27.5972893 110.641969,36.7043054 109.089273,45.7270464 L109.100229,45.7215683 Z M42.7382046,67.5464243 L32.1325516,61.427357 C32.0220863,61.3662676 31.9469493,61.2566082 31.9298541,61.1315382 L31.9298541,31.8509519 C31.9229009,22.6891727 37.2178921,14.3508632 45.5129032,10.4609995 C53.8079142,6.57113579 63.604525,7.83238731 70.6437811,13.6964407 C70.4575247,13.8005251 70.123359,13.9813033 69.8877996,14.1182564 L44.7979802,28.6024229 C43.5179646,29.3321997 42.7306941,30.6952663 42.7382046,32.1686833 L42.7382046,67.5464243 Z M48.4957155,55.1275115 L62.1362506,47.2499656 L75.7713075,55.1275115 L75.7713075,70.8716471 L62.1307724,78.749193 L48.4902374,70.8716471 L48.4957155,55.1275115 Z"></path>
		</g>
</svg>

<svg viewBox="0 0 512 126" xmlns="http://www.w3.org/2000/svg"><g><path d="M365.13 49.07c-7.54 0-12.92 2.57-15.56 7.45l-1.42 2.64v-8.82h-12.27v53.6h12.9v-31.9c0-7.63 4.14-12 11.35-12 6.88 0 10.82 4.25 10.82 11.67v32.21h12.9V69.4c0-12.77-7.01-20.37-18.75-20.37Zm-62.57 0c-15.23 0-24.66 9.49-24.66 24.78v7.52c0 14.7 9.53 23.83 24.89 23.83 10.27 0 17.46-3.77 22-11.51l-8-4.61c-3.35 4.46-8.7 7.23-14 7.23 -7.78 0-12.42-4.8-12.42-12.85v-2.14h36v-8.9c0-14.25-9.36-23.42-23.83-23.42h-.02Zm12.1 23.63h-24.32v-1.29c0-8.83 4.33-13.7 12.19-13.7 7.57 0 12.1 4.79 12.1 12.84l.01 2.14Zm197.33-31.2V31.24h-44.63v10.25H483v52.15h-15.65v10.25h44.62V93.63h-15.66V41.47h15.65ZM173.62 29.76c-19.93 0-32.33 12.41-32.33 32.41v10.81c0 19.99 12.38 32.41 32.32 32.41 19.93 0 32.32-12.43 32.32-32.42V62.15c-.01-20.03-12.41-32.42-32.33-32.42Zm18.98 43.97c0 13.27-6.92 20.89-18.99 20.89 -12.07 0-18.99-7.62-18.99-20.9v-12.3c0-13.28 6.92-20.9 18.98-20.9s18.98 7.61 18.98 20.89l-.01 12.29Zm53.85-24.69c-6.78 0-12.64 2.8-15.69 7.49l-1.39 2.13v-8.37h-12.28v72.05h12.9v-26.1l1.38 2.04c2.9 4.3 8.57 6.87 15.16 6.87 11.12 0 22.35-7.27 22.35-23.52v-9.12c0-11.71-6.92-23.52-22.47-23.52v0Zm9.55 32c0 8.63-5.04 14-13.15 14 -7.56 0-12.84-5.68-12.84-13.8v-8.07c0-8.22 5.31-14.01 12.94-14.01 8.04 0 13.04 5.36 13.04 14l-.02 7.85Zm163.5-49.81l-26.04 72.68h13.1l4.98-15.58h29.93l.04.15 4.93 15.42h13.1l-26.09-72.69 -14 0Zm-4.75 46.85l11.74-36.75 11.62 36.74h-23.37Z"/><path d="M116.08 51.56c2.85-8.58 1.87-17.98-2.7-25.78 -6.89-11.96-20.7-18.11-34.19-15.23C73.18 3.78 64.56-.07 55.51-.02c-13.8-.04-26.04 8.85-30.28 21.98 -8.86 1.81-16.51 7.36-20.98 15.22 -6.92 11.93-5.34 26.97 3.9 37.21 -2.85 8.57-1.87 17.95 2.69 25.74 6.87 11.98 20.7 18.14 34.21 15.25 5.99 6.75 14.6 10.6 23.64 10.56 13.79.03 26.03-8.86 30.27-21.99 8.85-1.82 16.49-7.37 20.97-15.23 6.93-11.94 5.35-26.99-3.91-37.23Zm-47.35 66.21c-5.53 0-10.88-1.94-15.11-5.48 .18-.11.54-.29.75-.43l25.08-14.49c1.28-.73 2.06-2.1 2.05-3.57V58.42l10.6 6.11c.11.05.19.16.2.29V94.1c0 13.04-10.57 23.61-23.61 23.63v0ZM18 96.1c-2.77-4.78-3.77-10.38-2.83-15.83 .18.11.51.31.74.44L41 95.19c1.27.74 2.84.74 4.11 0l30.61-17.71v12.23c.01.12-.05.25-.15.32L50.2 104.66c-11.3 6.5-25.72 2.63-32.25-8.64v.02Zm-6.58-54.79c2.75-4.79 7.1-8.46 12.28-10.36v29.82c-.01 1.47.77 2.83 2.05 3.56l30.62 17.68 -10.64 6.14c-.11.07-.24.08-.36.03L20.01 73.53C8.72 67 4.86 52.57 11.37 41.28h.02Zm87.1 20.26L67.89 43.88l10.58-6.13c.1-.07.23-.09.35-.04l25.35 14.64c7.92 4.58 12.49 13.33 11.71 22.45 -.79 9.12-6.77 16.97-15.37 20.13V65.11c.01-1.48-.77-2.85-2.05-3.59h.01Zm10.55-15.89c-.19-.12-.52-.32-.75-.45l-25.1-14.49c-1.28-.75-2.85-.75-4.12 0L48.47 48.41V36.17c-.01-.13.05-.25.15-.33L73.97 21.2c7.93-4.58 17.79-4.15 25.3 1.09 7.5 5.23 11.31 14.34 9.75 23.36l.01-.01ZM42.7 67.5l-10.61-6.12c-.12-.07-.19-.18-.21-.3V31.79c-.01-9.17 5.28-17.51 13.58-21.39 8.29-3.89 18.09-2.63 25.13 3.23 -.19.1-.53.28-.76.42L44.74 28.53c-1.29.72-2.07 2.09-2.06 3.56v35.37Zm5.75-12.42l13.64-7.88 13.63 7.87v15.74l-13.65 7.87 -13.65-7.88 0-15.75Z"/></g></svg>
